X: 1
T: Cumernad House
O: Old MS
R: strathspey
Z: 2008 John Chambers <jc:trillian.mit.edu>
M: C
L: 1/16
K: G
G3A \
| "G"B3A B2e2 "Em"dB3 A3G | "Am"E2D2 E2G2 "D7"A4 B3d \
| "G"e3d B2g2 "Em"dB3 A3G | "D7"D3E G3A "G"G4 :|
B3A \
| "G"G2A2 B2c2 d4 "(Em)"g4 | "Am"d2cB cBAG "D7"d4 g3f \
| "Em"e2f2 g2a2 "Bm"f4 e2d2 | "Em"B4 e3f "(C)"e4 "D7"d2ef |
y4 \
| "G"g2f2 e2d2 "Em"B4 g4 | "Am"d2cB cBAG "D7"A4 B2d2 \
| "C"e2d2 e2g2 "G/B"d2cB "(Am)"cBAG | "D7"D3E G3A "G"G4 |]
